X: 189
T: I Sing of the Dead Chiefs
C: Teton Sioux band 1911-1914
N: Derived from sioux184.krn
O: South Dakota, U.S.A.
N: Teton Sioux Music by Frances Densmore, 1918
Z: transcribed to **kern format by Craig Sapp
L: 1/8
M: 2/4
Q: 1/4=58
K: G clef=bass
%%linebreak <none>
D2D2 [I:setbarnb 2]| 
D2D2 ||  
[M:3/4]A, D D B, B, D3// B,// ||  
[M:2/4]A,2A, G,3// B,// | 
B,< A,- A, B,/ A,/ | 
G,2G, G,/ G,/ | 
G,4 | 
D, A, A, G, | 
G, G, A, G,/ G,// G,// | 
D,2D, D, | 
D,4 | 
D,4 | 
G, A,A,2 ||  
[M:3/4]D B, (B,< A,) A, G,3// B,// ||  
[M:2/4](B,> A,) B, A, ||  
[M:3/4]A, B, A,< G, G, G, | 
G,6 ||  
[M:2/4]D, A, A, G, | 
G, A, A,/ G,3/ | 
G, D, D, D, | 
D,4 | 
D,2z2 |]  



